;FLAVOR:Marlin
;TIME:6005
;Filament used: 3.53405m
;Layer height: 0.2
;MINX:67.381
;MINY:52.929
;MINZ:0.2
;MAXX:120.407
;MAXY:169.649
;MAXZ:11.6
;Generated with Cura_SteamEngine 4.12.1
M140 S70
M105
M190 S70
M104 S215
M105
M109 S215
M82 ;absolute extrusion mode
; Ender 3 Custom Start G-code
G92 E0 ; Reset Extruder
G28 ; Home all axes
G1 Z2.0 F3000 ; Move Z Axis up little to prevent scratching of Heat Bed
G1 X0.1 Y20 Z0.3 F5000.0 ; Move to start position
G92 E0 ; Reset Extruder
G1 Z2.0 F3000 ; Move Z Axis up little to prevent scratching of Heat Bed
G1 X5 Y20 Z0.3 F5000.0 ; Move over to prevent blob squish
G92 E0
G92 E0
G1 F1500 E-2
;LAYER_COUNT:58
;LAYER:0
M107
G0 F6000 X82.182 Y66.494 Z0.2
;TYPE:SKIRT
G1 F1500 E0
G1 F900 X82.634 Y65.985 E0.02264
G1 X83.325 Y65.395 E0.05286
G1 X84.164 Y64.784 E0.08738
G1 X84.737 Y64.416 E0.11003
G1 X85.349 Y64.118 E0.13267
G1 X85.992 Y63.893 E0.15533
G1 X86.656 Y63.746 E0.17795
G1 X87.578 Y63.672 E0.20871
G1 X88.278 Y63.672 E0.232
G1 X89.78 Y59.218 E0.38833
G1 X90.016 Y58.627 E0.4095
G1 X90.278 Y58.063 E0.43018
G1 X90.675 Y57.346 E0.45744
G1 X90.98 Y56.917 E0.47495
G1 X91.376 Y56.41 E0.49635
G1 X91.826 Y55.899 E0.51899
G1 X92.27 Y55.495 E0.53896
G1 X92.753 Y55.099 E0.55973
G1 X93.231 Y54.746 E0.5795
G1 X93.839 Y54.392 E0.6029
G1 X94.399 Y54.11 E0.62375
G1 X95.024 Y53.84 E0.6464
G1 X95.599 Y53.664 E0.6664
G1 X96.218 Y53.509 E0.68762
G1 X96.932 Y53.377 E0.71177
G1 X97.539 Y53.333 E0.73201
G1 X98.16 Y53.321 E0.75267
G1 X98.797 Y53.344 E0.77387
G1 X99.479 Y53.444 E0.7968
G1 X100.093 Y53.572 E0.81766
G1 X100.523 Y53.679 E0.83239
G1 X101.321 Y53.972 E0.86067
G1 X101.889 Y54.229 E0.8814
G1 X102.492 Y54.545 E0.90405
G1 X103.007 Y54.895 E0.92476
G1 X103.11 Y54.973 E0.92906
G1 X103.371 Y54.783 E0.93979
G1 X104.198 Y54.281 E0.97197
G1 X104.966 Y53.898 E1.00051
G1 X105.47 Y53.675 E1.01884
G1 X105.915 Y53.523 E1.03448
G1 X106.75 Y53.274 E1.06347
G1 X107.672 Y53.079 E1.09481
G1 X108.51 Y52.972 E1.12291
G1 X109.46 Y52.929 E1.15454
G1 X110.295 Y52.96 E1.18233
G1 X111.259 Y53.077 E1.21463
G1 X112.121 Y53.256 E1.24391
G1 X113.074 Y53.541 E1.27699
G1 X113.881 Y53.86 E1.30585
G1 X114.737 Y54.283 E1.33761
G1 X115.469 Y54.723 E1.36602
G1 X115.866 Y54.984 E1.38182
G1 X116.275 Y55.305 E1.39911
G1 X116.908 Y55.849 E1.42687
G1 X117.589 Y56.541 E1.45916
G1 X118.154 Y57.221 E1.48857
G1 X118.3 Y57.405 E1.49638
G1 X118.735 Y58.056 E1.52242
G1 X119.165 Y58.806 E1.55118
G1 X119.571 Y59.673 E1.58302
G1 X119.862 Y60.457 E1.61083
G1 X120.119 Y61.376 E1.64257
G1 X120.282 Y62.221 E1.6712
G1 X120.344 Y62.617 E1.68453
G1 X120.388 Y63.204 E1.70411
G1 X120.407 Y64.041 E1.73195
G1 X120.383 Y64.71 E1.75422
G1 X120.342 Y65.062 E1.766
G1 X120.22 Y65.889 E1.79381
G1 X120.003 Y66.819 E1.82557
G1 X119.744 Y67.624 E1.8537
G1 X119.523 Y68.204 E1.87434
G1 X119.503 Y68.249 E1.87598
G1 X119.343 Y68.579 E1.88818
G1 X118.973 Y69.287 E1.91475
G1 X118.65 Y69.831 E1.93579
G1 X118.554 Y69.971 E1.94143
G1 X118.276 Y121.599 E3.65861
G1 X118.482 Y121.953 E3.67224
G1 X118.616 Y122.194 E3.68141
G1 X118.874 Y122.741 E3.70152
G1 X119.251 Y123.657 E3.73447
G1 X119.4 Y124.06 E3.74876
G1 X119.418 Y124.115 E3.75068
G1 X119.527 Y124.49 E3.76367
G1 X119.769 Y125.442 E3.79634
G1 X119.909 Y126.203 E3.82208
G1 X120.025 Y127.204 E3.8556
G1 X120.06 Y127.645 E3.87031
G1 X120.062 Y127.696 E3.87201
G1 X120.064 Y128.076 E3.88465
G1 X120.038 Y129.064 E3.91752
G1 X119.965 Y129.842 E3.94351
G1 X119.801 Y130.85 E3.97748
G1 X119.617 Y131.634 E4.00426
G1 X119.321 Y132.59 E4.03755
G1 X119.034 Y133.333 E4.06404
G1 X118.591 Y134.28 E4.09881
G1 X118.198 Y134.987 E4.12571
G1 X117.642 Y135.841 E4.15961
G1 X117.161 Y136.478 E4.18616
G1 X116.49 Y137.251 E4.2202
G1 X116.306 Y137.435 E4.22886
G1 X116.429 Y137.634 E4.23664
G1 X116.76 Y138.251 E4.25993
G1 X117.24 Y139.292 E4.29805
G1 X117.498 Y139.958 E4.32181
G1 X117.842 Y141.036 E4.35944
G1 X118.015 Y141.714 E4.38272
G1 X118.226 Y142.822 E4.42023
G1 X118.315 Y143.522 E4.4437
G1 X118.391 Y144.664 E4.48177
G1 X118.395 Y145.37 E4.50525
G1 X118.332 Y146.506 E4.54309
G1 X118.25 Y147.21 E4.56666
G1 X118.049 Y148.33 E4.60451
G1 X117.882 Y149.014 E4.62793
G1 X117.548 Y150.097 E4.66562
G1 X117.303 Y150.75 E4.68882
G1 X116.834 Y151.805 E4.72722
G1 X119.221 Y156.47 E4.90151
G1 X119.457 Y156.992 E4.92057
G1 X119.691 Y157.588 E4.94186
G1 X119.902 Y158.236 E4.96453
G1 X120.007 Y158.716 E4.98087
G1 X120.116 Y159.344 E5.00207
G1 X120.192 Y160.021 E5.02473
G1 X120.2 Y160.458 E5.03927
G1 X120.187 Y161.074 E5.05976
G1 X120.127 Y161.793 E5.08376
G1 X120.046 Y162.234 E5.09867
G1 X119.909 Y162.849 E5.11963
G1 X119.722 Y163.504 E5.14228
G1 X119.547 Y163.946 E5.15809
G1 X119.296 Y164.51 E5.17863
G1 X118.986 Y165.11 E5.20109
G1 X118.732 Y165.504 E5.21668
G1 X118.375 Y166.012 E5.23733
G1 X117.952 Y166.545 E5.25996
G1 X117.625 Y166.882 E5.27558
G1 X117.166 Y167.318 E5.29664
G1 X116.812 Y167.627 E5.31227
G1 X116.244 Y168.035 E5.33553
G1 X115.726 Y168.361 E5.35588
G1 X115.13 Y168.689 E5.37851
G1 X114.706 Y168.87 E5.39384
G1 X114.109 Y169.098 E5.4151
G1 X113.768 Y169.217 E5.42711
G1 X112.961 Y169.409 E5.4547
G1 X112.34 Y169.511 E5.47563
G1 X111.594 Y169.585 E5.50057
G1 X109.684 Y169.649 E5.56413
G1 X109.299 Y169.649 E5.57693
G1 X107.386 Y169.586 E5.64059
G1 X107.005 Y169.561 E5.65329
G1 X105.098 Y169.372 E5.71703
G1 X104.718 Y169.321 E5.72978
G1 X102.842 Y169.009 E5.79304
G1 X102.465 Y168.934 E5.80582
G1 X100.591 Y168.493 E5.86985
G1 X100.227 Y168.394 E5.8824
G1 X98.409 Y167.839 E5.94562
G1 X98.042 Y167.714 E5.95852
G1 X96.247 Y167.032 E6.02238
G1 X95.898 Y166.886 E6.03497
G1 X94.159 Y166.092 E6.09855
G1 X93.812 Y165.92 E6.11143
G1 X92.123 Y165.008 E6.17527
G1 X91.792 Y164.814 E6.18803
G1 X90.182 Y163.802 E6.25128
G1 X89.866 Y163.589 E6.26396
G1 X88.319 Y162.468 E6.3275
G1 X88.015 Y162.232 E6.3403
G1 X86.537 Y161.004 E6.40421
G1 X86.254 Y160.752 E6.41681
G1 X84.868 Y159.438 E6.48034
G1 X84.596 Y159.162 E6.49323
G1 X83.293 Y157.75 E6.55713
G1 X82.771 Y157.096 E6.58496
G1 X82.455 Y156.635 E6.60355
G1 X82.097 Y156.039 E6.62667
G1 X81.88 Y155.566 E6.64398
G1 X81.494 Y155.711 E6.6577
G1 X80.833 Y155.874 E6.68034
G1 X80.157 Y155.958 E6.703
G1 X79.476 Y155.962 E6.72565
G1 X78.799 Y155.886 E6.74831
G1 X78.349 Y155.791 E6.7636
G1 X78.188 Y155.75 E6.76913
G1 X77.539 Y155.543 E6.79179
G1 X76.919 Y155.262 E6.81443
G1 X76.336 Y154.91 E6.83708
G1 X75.798 Y154.493 E6.85972
G1 X75.313 Y154.015 E6.88237
G1 X74.887 Y153.483 E6.90504
G1 X74.629 Y153.086 E6.92078
G1 X68.183 Y142.207 E7.34137
G1 X67.871 Y141.601 E7.36404
G1 X67.632 Y140.964 E7.38667
G1 X67.469 Y140.303 E7.40931
G1 X67.385 Y139.627 E7.43197
G1 X67.381 Y138.946 E7.45462
G1 X67.456 Y138.27 E7.47724
G1 X67.552 Y137.819 E7.49258
G1 X67.593 Y137.658 E7.4981
G1 X67.8 Y137.009 E7.52076
G1 X68.081 Y136.389 E7.5434
G1 X68.433 Y135.806 E7.56605
G1 X68.85 Y135.268 E7.58869
G1 X69.328 Y134.783 E7.61134
G1 X69.86 Y134.357 E7.63401
G1 X69.991 Y134.272 E7.6392
G1 X70.139 Y133.735 E7.65773
G1 X70.396 Y133.105 E7.68036
G1 X70.726 Y132.509 E7.70302
G1 X71.122 Y131.956 E7.72564
G1 X71.581 Y131.453 E7.74829
G1 X72.278 Y130.873 E7.77845
G1 X73.337 Y130.124 E7.82159
G1 X74.219 Y129.379 E7.85999
G1 X75.03 Y128.566 E7.89818
G1 X75.767 Y127.687 E7.93633
G1 X76.433 Y126.739 E7.97487
G1 X77.035 Y125.706 E8.01463
G1 X77.517 Y124.684 E8.05222
G1 X77.916 Y123.609 E8.09035
G1 X78.235 Y122.461 E8.12998
G1 X78.441 Y121.35 E8.16757
G1 X78.556 Y120.187 E8.20644
G1 X78.573 Y118.94 E8.24792
G1 X77.444 Y79.754 E9.55179
G1 X77.453 Y79.234 E9.56909
G1 X77.494 Y78.561 E9.59151
G1 X77.64 Y77.573 E9.62473
G1 X77.794 Y76.925 E9.64688
G1 X78.108 Y75.977 E9.6801
G1 X78.364 Y75.381 E9.70167
G1 X78.829 Y74.511 E9.73448
G1 X79.192 Y73.952 E9.75665
G1 X79.801 Y73.169 E9.78964
G1 X80.255 Y72.679 E9.81186
G1 X80.577 Y72.358 E9.82698
G1 X80.73 Y72.206 E9.83416
G1 X80.636 Y71.531 E9.85682
G1 X80.622 Y70.851 E9.87944
G1 X80.688 Y70.173 E9.9021
G1 X80.903 Y69.274 E9.93285
G1 X81.224 Y68.288 E9.96733
G1 X81.472 Y67.654 E9.98998
G1 X81.793 Y67.053 E10.01264
G1 X82.182 Y66.494 E10.03529
G0 F6000 X82.54 Y66.688
G1 F900 X82.983 Y66.203 E10.05714
G1 X83.56 Y65.718 E10.08221
G1 X84.399 Y65.107 E10.11673
G1 X84.953 Y64.753 E10.1386
G1 X85.545 Y64.469 E10.16043
G1 X86.168 Y64.259 E10.1823
G1 X86.811 Y64.127 E10.20413
G1 X87.578 Y64.072 E10.22971
G1 X88.566 Y64.072 E10.26257
G1 X90.159 Y59.346 E10.42845
G1 X90.379 Y58.796 E10.44815
G1 X90.641 Y58.232 E10.46883
G1 X91.01 Y57.564 E10.49421
G1 X91.295 Y57.163 E10.51058
G1 X91.691 Y56.656 E10.53197
G1 X92.126 Y56.164 E10.55382
G1 X92.523 Y55.804 E10.57164
G1 X93.006 Y55.408 E10.59242
G1 X93.453 Y55.079 E10.61088
G1 X94.019 Y54.749 E10.63267
G1 X94.579 Y54.467 E10.65352
G1 X95.183 Y54.208 E10.67538
G1 X95.696 Y54.052 E10.69321
G1 X96.315 Y53.897 E10.71444
G1 X96.981 Y53.774 E10.73696
G1 X97.547 Y53.733 E10.75584
G1 X98.168 Y53.721 E10.7765
G1 X98.763 Y53.742 E10.7963
G1 X99.397 Y53.836 E10.81762
G1 X100.011 Y53.964 E10.83848
G1 X100.413 Y54.064 E10.85225
G1 X101.156 Y54.336 E10.87857
G1 X101.724 Y54.593 E10.89931
G1 X102.305 Y54.9 E10.92116
G1 X102.765 Y55.213 E10.93967
G1 X103.105 Y55.471 E10.95386
G1 X103.607 Y55.106 E10.97451
G1 X104.376 Y54.639 E11.00443
G1 X105.144 Y54.256 E11.03297
G1 X105.615 Y54.048 E11.0501
G1 X106.029 Y53.906 E11.06466
G1 X106.864 Y53.657 E11.09364
G1 X107.723 Y53.475 E11.12284
G1 X108.561 Y53.368 E11.15094
G1 X109.445 Y53.329 E11.18037
G1 X110.28 Y53.36 E11.20816
G1 X111.178 Y53.469 E11.23825
G1 X112.04 Y53.648 E11.26753
G1 X112.927 Y53.913 E11.29832
G1 X113.734 Y54.232 E11.32718
G1 X114.531 Y54.626 E11.35675
G1 X115.263 Y55.066 E11.38516
G1 X115.634 Y55.31 E11.39993
G1 X116.015 Y55.609 E11.41604
G1 X116.648 Y56.153 E11.4438
G1 X117.281 Y56.797 E11.47383
G1 X117.846 Y57.477 E11.50324
G1 X117.983 Y57.649 E11.51055
G1 X118.388 Y58.255 E11.53479
G1 X118.818 Y59.005 E11.56355
G1 X119.196 Y59.812 E11.59319
G1 X119.487 Y60.596 E11.621
G1 X119.726 Y61.452 E11.65056
G1 X119.889 Y62.297 E11.67918
G1 X119.947 Y62.666 E11.69161
G1 X119.988 Y63.213 E11.70985
G1 X120.007 Y64.05 E11.7377
G1 X119.985 Y64.673 E11.75843
G1 X119.946 Y65.004 E11.76952
G1 X119.824 Y65.831 E11.79732
G1 X119.622 Y66.697 E11.8269
G1 X119.363 Y67.502 E11.85502
G1 X119.158 Y68.041 E11.8742
G1 X118.989 Y68.394 E11.88722
G1 X118.619 Y69.102 E11.91379
G1 X118.318 Y69.609 E11.9334
G1 X118.154 Y69.843 E11.9429
G1 X117.875 Y121.706 E13.6679
G1 X118.136 Y122.154 E13.68515
G1 X118.264 Y122.384 E13.6939
G1 X118.505 Y122.893 E13.71263
G1 X118.882 Y123.809 E13.74558
G1 X119.02 Y124.184 E13.75887
G1 X119.038 Y124.239 E13.76079
G1 X119.14 Y124.589 E13.77292
G1 X119.382 Y125.541 E13.80559
G1 X119.512 Y126.249 E13.82953
G1 X119.628 Y127.25 E13.86305
G1 X119.66 Y127.66 E13.87672
G1 X119.662 Y127.711 E13.87842
G1 X119.664 Y128.065 E13.8902
G1 X119.638 Y129.053 E13.92307
G1 X119.57 Y129.778 E13.94729
G1 X119.406 Y130.786 E13.98125
G1 X119.234 Y131.516 E14.0062
G1 X118.938 Y132.472 E14.03949
G1 X118.671 Y133.163 E14.06412
G1 X118.228 Y134.11 E14.0989
G1 X117.862 Y134.768 E14.12394
G1 X117.306 Y135.622 E14.15783
G1 X116.859 Y136.216 E14.18256
G1 X116.188 Y136.989 E14.2166
G1 X115.8 Y137.377 E14.23485
G1 X116.088 Y137.844 E14.2531
G1 X116.397 Y138.419 E14.27481
G1 X116.877 Y139.46 E14.31294
G1 X117.117 Y140.079 E14.33502
G1 X117.461 Y141.157 E14.37266
G1 X117.622 Y141.789 E14.39435
G1 X117.833 Y142.897 E14.43187
G1 X117.916 Y143.548 E14.45369
G1 X117.992 Y144.69 E14.49176
G1 X117.996 Y145.348 E14.51365
G1 X117.933 Y146.484 E14.55149
G1 X117.856 Y147.139 E14.57342
G1 X117.655 Y148.259 E14.61127
G1 X117.5 Y148.896 E14.63307
G1 X117.166 Y149.979 E14.67077
G1 X116.938 Y150.587 E14.69237
G1 X116.497 Y151.575 E14.72835
G1 X116.396 Y151.811 E14.73689
G1 X116.431 Y151.896 E14.73995
G1 X118.865 Y156.652 E14.91764
G1 X119.084 Y157.139 E14.9354
G1 X119.318 Y157.735 E14.9567
G1 X119.521 Y158.36 E14.97856
G1 X119.612 Y158.785 E14.99301
G1 X119.721 Y159.413 E15.01421
G1 X119.794 Y160.065 E15.03603
G1 X119.8 Y160.45 E15.04884
G1 X119.787 Y161.066 E15.06933
G1 X119.731 Y161.737 E15.09173
G1 X119.656 Y162.147 E15.10559
G1 X119.519 Y162.762 E15.12655
G1 X119.337 Y163.394 E15.14842
G1 X119.181 Y163.784 E15.16239
G1 X118.93 Y164.348 E15.18293
G1 X118.641 Y164.907 E15.20386
G1 X118.405 Y165.274 E15.21837
G1 X118.048 Y165.782 E15.23902
G1 X117.638 Y166.295 E15.26086
G1 X117.349 Y166.592 E15.27465
G1 X116.89 Y167.028 E15.2957
G1 X116.56 Y167.317 E15.31029
G1 X116.031 Y167.696 E15.33194
G1 X115.513 Y168.022 E15.35229
G1 X114.937 Y168.338 E15.37414
G1 X114.564 Y168.497 E15.38763
G1 X113.967 Y168.725 E15.40888
G1 X113.647 Y168.835 E15.42014
G1 X112.896 Y169.015 E15.44582
G1 X112.275 Y169.117 E15.46676
G1 X111.581 Y169.185 E15.48995
G1 X109.671 Y169.249 E15.55351
G1 X109.312 Y169.249 E15.56545
G1 X107.399 Y169.186 E15.62911
G1 X107.044 Y169.163 E15.64095
G1 X105.137 Y168.974 E15.70468
G1 X104.784 Y168.927 E15.71653
G1 X102.908 Y168.615 E15.77978
G1 X102.557 Y168.544 E15.79169
G1 X100.683 Y168.103 E15.85572
G1 X100.343 Y168.012 E15.86743
G1 X98.525 Y167.457 E15.93065
G1 X98.184 Y167.34 E15.94264
G1 X96.389 Y166.658 E16.00651
G1 X96.064 Y166.522 E16.01823
G1 X94.325 Y165.728 E16.08181
G1 X94.002 Y165.568 E16.0938
G1 X92.313 Y164.656 E16.15764
G1 X92.005 Y164.476 E16.16951
G1 X90.395 Y163.464 E16.23276
G1 X90.1 Y163.265 E16.24459
G1 X88.553 Y162.144 E16.30813
G1 X88.271 Y161.924 E16.32003
G1 X86.793 Y160.696 E16.38394
G1 X86.529 Y160.462 E16.39567
G1 X85.143 Y159.148 E16.4592
G1 X84.89 Y158.891 E16.47119
G1 X83.587 Y157.479 E16.5351
G1 X83.101 Y156.87 E16.56101
G1 X82.785 Y156.409 E16.5796
G1 X82.451 Y155.854 E16.60114
G1 X82.196 Y155.295 E16.62158
G1 X82.096 Y155.04 E16.63069
G1 X81.948 Y155.116 E16.63622
G1 X81.331 Y155.342 E16.65808
G1 X80.692 Y155.492 E16.67991
G1 X80.039 Y155.564 E16.70176
G1 X79.382 Y155.555 E16.72361
G1 X78.447 Y155.403 E16.75512
G1 X78.286 Y155.362 E16.76065
G1 X77.661 Y155.161 E16.78248
G1 X77.064 Y154.886 E16.80434
G1 X76.505 Y154.541 E16.82619
G1 X75.993 Y154.13 E16.84803
G1 X75.534 Y153.66 E16.86988
G1 X74.973 Y152.882 E16.90178
G1 X68.527 Y142.003 E17.32237
G1 X68.227 Y141.418 E17.34423
G1 X68.001 Y140.802 E17.36606
G1 X67.851 Y140.162 E17.38792
G1 X67.779 Y139.509 E17.40977
G1 X67.788 Y138.852 E17.43162
G1 X67.94 Y137.917 E17.46313
G1 X67.981 Y137.756 E17.46866
G1 X68.182 Y137.131 E17.49049
G1 X68.457 Y136.534 E17.51235
G1 X68.802 Y135.975 E17.5342
G1 X69.213 Y135.463 E17.55604
G1 X69.683 Y135.004 E17.57789
G1 X70.337 Y134.534 E17.60468
G1 X70.349 Y134.476 E17.60665
G1 X70.525 Y133.843 E17.6285
G1 X70.777 Y133.236 E17.65036
G1 X71.101 Y132.664 E17.67222
G1 X71.492 Y132.136 E17.69407
G1 X71.944 Y131.66 E17.71591
G1 X72.51 Y131.199 E17.74019
G1 X73.583 Y130.44 E17.7839
G1 X74.484 Y129.679 E17.82313
G1 X75.325 Y128.835 E17.86276
G1 X76.09 Y127.924 E17.90232
G1 X76.769 Y126.958 E17.94159
G1 X77.388 Y125.895 E17.98251
G1 X77.886 Y124.839 E18.02134
G1 X78.3 Y123.722 E18.06096
G1 X78.623 Y122.563 E18.10098
G1 X78.837 Y121.404 E18.14018
G1 X78.955 Y120.208 E18.18015
G1 X78.973 Y118.935 E18.22249
G1 X77.844 Y79.743 E19.52657
G1 X77.852 Y79.259 E19.54267
G1 X77.893 Y78.586 E19.56509
G1 X78.029 Y77.665 E19.59606
G1 X78.183 Y77.017 E19.61821
G1 X78.475 Y76.135 E19.64911
G1 X78.731 Y75.539 E19.67069
G1 X79.164 Y74.729 E19.70123
G1 X79.527 Y74.17 E19.7234
G1 X80.095 Y73.441 E19.75414
G1 X80.549 Y72.951 E19.77636
G1 X80.85 Y72.651 E19.79049
G1 X81.186 Y72.367 E19.80512
G1 X81.118 Y72.105 E19.81413
G1 X81.032 Y71.454 E19.83597
G1 X81.025 Y70.797 E19.85782
G1 X81.098 Y70.144 E19.87968
G1 X81.283 Y69.397 E19.90527
G1 X81.604 Y68.411 E19.93976
G1 X81.845 Y67.8 E19.96161
G1 X82.159 Y67.223 E19.98345
G1 X82.54 Y66.688 E20.0053
G0 F6000 X82.896 Y66.884
G1 F900 X83.331 Y66.425 E20.02633
G1 X83.796 Y66.041 E20.04639
G1 X84.635 Y65.43 E20.08091
G1 X85.168 Y65.091 E20.10192
G1 X85.74 Y64.822 E20.12294
G1 X86.341 Y64.627 E20.14396
G1 X86.963 Y64.51 E20.16501
G1 X87.578 Y64.472 E20.1855
G1 X88.616 Y64.472 E20.22003
G1 X88.848 Y64.487 E20.22776
G1 X90.538 Y59.474 E20.40371
G1 X90.741 Y58.964 E20.42197
G1 X91.003 Y58.4 E20.44265
G1 X91.346 Y57.782 E20.46616
