;FLAVOR:Marlin
;TIME:6037
;Filament used: 3.56687m
;Layer height: 0.2
;MINX:72.398
;MINY:36.664
;MINZ:0.2
;MAXX:126.401
;MAXY:163.041
;MAXZ:11.6
;Generated with Cura_SteamEngine 4.12.1
M140 S70
M105
M190 S70
M104 S215
M105
M109 S215
M82 ;absolute extrusion mode
; Ender 3 Custom Start G-code
G92 E0 ; Reset Extruder
G28 ; Home all axes
G1 Z2.0 F3000 ; Move Z Axis up little to prevent scratching of Heat Bed
G1 X0.1 Y20 Z0.3 F5000.0 ; Move to start position
G92 E0 ; Reset Extruder
G1 Z2.0 F3000 ; Move Z Axis up little to prevent scratching of Heat Bed
G1 X5 Y20 Z0.3 F5000.0 ; Move over to prevent blob squish
G92 E0
G92 E0
G1 F1500 E-2
;LAYER_COUNT:58
;LAYER:0
M107
G0 F6000 X86.471 Y44.929 Z0.2
;TYPE:SKIRT
G1 F1500 E0
G1 F900 X86.804 Y44.311 E0.02335
G1 X87.399 Y43.35 E0.06094
G1 X87.809 Y42.77 E0.08457
G1 X88.521 Y41.884 E0.12237
G1 X88.997 Y41.36 E0.14592
G1 X89.814 Y40.565 E0.18383
G1 X90.339 Y40.112 E0.2069
G1 X91.24 Y39.424 E0.2446
G1 X91.832 Y39.027 E0.26831
G1 X92.805 Y38.458 E0.3058
G1 X93.442 Y38.137 E0.32952
G1 X94.5 Y37.682 E0.36783
G1 X95.162 Y37.443 E0.39124
G1 X96.252 Y37.124 E0.42901
G1 X96.934 Y36.969 E0.45227
G1 X98.052 Y36.784 E0.48996
G1 X98.76 Y36.711 E0.51364
G1 X99.901 Y36.664 E0.55162
G1 X100.611 Y36.678 E0.57524
G1 X101.74 Y36.77 E0.61291
G1 X102.432 Y36.869 E0.63616
G1 X103.546 Y37.097 E0.67398
G1 X104.229 Y37.281 E0.69751
G1 X105.304 Y37.642 E0.73523
G1 X105.954 Y37.905 E0.75855
G1 X106.969 Y38.389 E0.79595
G1 X107.591 Y38.734 E0.81961
G1 X108.568 Y39.357 E0.85815
G1 X109.137 Y39.77 E0.88153
G1 X110.009 Y40.488 E0.9191
G1 X110.531 Y40.975 E0.94284
G1 X111.316 Y41.803 E0.98079
G1 X111.768 Y42.341 E1.00416
G1 X112.445 Y43.255 E1.04199
G1 X112.831 Y43.848 E1.06553
G1 X113.385 Y44.826 E1.10291
G1 X113.695 Y45.461 E1.12642
G1 X114.136 Y46.523 E1.16466
G1 X114.365 Y47.187 E1.18802
G1 X114.671 Y48.283 E1.22587
G1 X114.82 Y48.975 E1.24941
G1 X114.979 Y50.027 E1.2848
G1 X114.989 Y50.082 E1.28666
G1 X117.529 Y51.384 E1.38159
G1 X118.097 Y51.717 E1.40349
G1 X118.575 Y52.035 E1.42259
G1 X119 Y52.347 E1.44012
G1 X119.59 Y52.89 E1.46679
G1 X119.977 Y53.299 E1.48552
G1 X120.235 Y53.59 E1.49846
G1 X120.777 Y54.361 E1.5298
G1 X121.056 Y54.835 E1.54809
G1 X121.389 Y55.492 E1.57259
G1 X121.601 Y56.063 E1.59285
G1 X121.77 Y56.602 E1.61164
G1 X121.897 Y57.074 E1.6279
G1 X122.023 Y57.898 E1.65562
G1 X122.067 Y58.45 E1.67404
G1 X122.085 Y58.933 E1.69011
G1 X122.022 Y59.783 E1.71846
G1 X121.939 Y60.343 E1.73729
G1 X121.8 Y61.01 E1.75995
G1 X121.607 Y61.597 E1.78051
G1 X121.398 Y62.134 E1.79967
G1 X121.12 Y62.742 E1.82191
G1 X120.77 Y63.325 E1.84452
G1 X120.452 Y63.79 E1.86326
G1 X119.927 Y64.449 E1.89128
G1 X119.119 Y65.325 E1.93092
G1 X119.362 Y65.62 E1.94363
G1 X119.836 Y66.306 E1.97137
G1 X120.31 Y67.13 E2.00298
G1 X120.742 Y68.05 E2.03679
G1 X121.034 Y68.866 E2.06561
G1 X121.259 Y69.683 E2.0938
G1 X121.436 Y70.626 E2.12571
G1 X121.525 Y71.486 E2.15447
G1 X121.544 Y72.45 E2.18654
G1 X121.491 Y73.286 E2.2144
G1 X121.424 Y73.873 E2.23405
G1 X121.414 Y73.933 E2.23607
G1 X121.336 Y74.319 E2.24917
G1 X121.143 Y75.132 E2.27696
G1 X120.841 Y76.053 E2.3092
G1 X120.524 Y76.802 E2.33625
G1 X120.275 Y77.318 E2.35531
G1 X120.156 Y77.526 E2.36328
G1 X124.043 Y129.015 E4.08068
G1 X124.333 Y129.434 E4.09763
G1 X124.736 Y130.108 E4.12375
G1 X125.18 Y130.981 E4.15632
G1 X125.346 Y131.336 E4.16936
G1 X125.372 Y131.397 E4.17156
G1 X125.526 Y131.8 E4.18591
G1 X125.847 Y132.742 E4.21901
G1 X126.047 Y133.491 E4.2448
G1 X126.243 Y134.485 E4.27849
G1 X126.344 Y135.287 E4.30538
G1 X126.401 Y136.32 E4.33979
G1 X126.39 Y137.118 E4.36633
G1 X126.307 Y138.121 E4.39981
G1 X126.185 Y138.918 E4.42663
G1 X125.957 Y139.93 E4.46113
G1 X125.726 Y140.702 E4.48793
G1 X125.37 Y141.646 E4.52149
G1 X125.046 Y142.356 E4.54744
G1 X124.563 Y143.25 E4.58124
G1 X124.134 Y143.927 E4.6079
G1 X123.525 Y144.756 E4.64211
G1 X123 Y145.374 E4.66908
G1 X122.29 Y146.101 E4.70288
G1 X121.7 Y146.629 E4.72921
G1 X120.884 Y147.263 E4.76358
G1 X120.22 Y147.709 E4.79019
G1 X119.352 Y148.209 E4.8235
G1 X118.643 Y148.555 E4.84974
G1 X117.709 Y148.935 E4.88328
G1 X116.951 Y149.184 E4.90982
G1 X115.951 Y149.438 E4.94413
G1 X115.151 Y149.583 E4.97118
G1 X114.343 Y149.671 E4.99821
G1 X108.128 Y160.158 E5.40366
G1 X107.747 Y160.722 E5.4263
G1 X107.302 Y161.238 E5.44896
G1 X106.8 Y161.698 E5.47161
G1 X106.248 Y162.097 E5.49426
G1 X105.653 Y162.427 E5.51689
G1 X105.023 Y162.686 E5.53955
G1 X104.569 Y162.822 E5.55531
G1 X104.408 Y162.863 E5.56083
G1 X103.74 Y162.992 E5.58346
G1 X103.061 Y163.041 E5.60611
G1 X102.381 Y163.011 E5.62874
G1 X101.709 Y162.902 E5.65139
G1 X101.054 Y162.714 E5.67405
G1 X100.426 Y162.451 E5.6967
G1 X100.168 Y162.312 E5.70644
G1 X99.538 Y162.41 E5.72765
G1 X98.832 Y162.435 E5.75115
G1 X98.598 Y162.429 E5.75893
G1 X97.92 Y162.372 E5.78156
G1 X97.253 Y162.235 E5.80421
G1 X96.606 Y162.022 E5.82686
G1 X95.989 Y161.733 E5.84953
G1 X95.41 Y161.375 E5.87217
G1 X94.877 Y160.951 E5.89482
G1 X94.398 Y160.468 E5.91745
G1 X93.978 Y159.932 E5.94009
G1 X93.622 Y159.347 E5.96287
G1 X93.34 Y158.815 E5.9829
G1 X93.075 Y158.24 E6.00396
G1 X92.77 Y157.472 E6.03144
G1 X92.663 Y157.18 E6.04178
G1 X86.496 Y138.841 E6.6853
G1 X86.413 Y138.575 E6.69457
G1 X86.14 Y137.613 E6.72783
G1 X86.026 Y137.133 E6.74424
G1 X85.836 Y136.152 E6.77748
G1 X85.759 Y135.632 E6.79496
G1 X85.658 Y134.632 E6.82839
G1 X85.63 Y134.138 E6.84485
G1 X85.615 Y133.157 E6.87748
G1 X85.616 Y132.901 E6.88599
G1 X86.495 Y102.389 E7.90125
G1 X86.292 Y102.389 E7.908
G1 X85.612 Y102.349 E7.93065
G1 X84.942 Y102.23 E7.95329
G1 X84.29 Y102.033 E7.97594
G1 X83.666 Y101.761 E7.99858
G1 X83.143 Y101.46 E8.01865
G1 X82.023 Y100.736 E8.06301
G1 X81.601 Y100.435 E8.08025
G1 X80.176 Y99.322 E8.14039
G1 X78.933 Y98.44 E8.19108
G1 X78.402 Y98.014 E8.21372
G1 X78.011 Y97.626 E8.23204
G1 X77.133 Y96.667 E8.27529
G1 X76.087 Y95.501 E8.32739
G1 X75.663 Y94.968 E8.35004
G1 X75.151 Y94.087 E8.38393
G1 X74.485 Y92.664 E8.43619
G1 X74.301 Y92.226 E8.45199
G1 X73.539 Y90.176 E8.52473
G1 X73.34 Y89.525 E8.54737
G1 X73.259 Y89.131 E8.56075
G1 X72.977 Y87.479 E8.61649
G1 X72.914 Y86.987 E8.63299
G1 X72.806 Y85.697 E8.67605
G1 X72.787 Y85.299 E8.6893
G1 X72.771 Y84.205 E8.72569
G1 X72.698 Y82.946 E8.76763
G1 X72.648 Y82.176 E8.7933
G1 X72.505 Y81.629 E8.8121
G1 X72.412 Y80.954 E8.83477
G1 X72.398 Y80.273 E8.85742
G1 X72.464 Y79.596 E8.88004
G1 X72.679 Y78.702 E8.91063
G1 X73 Y77.716 E8.94512
G1 X73.248 Y77.082 E8.96776
G1 X73.569 Y76.481 E8.99042
G1 X73.958 Y75.922 E9.01307
G1 X74.41 Y75.413 E9.03571
G1 X75.101 Y74.823 E9.06593
G1 X75.94 Y74.212 E9.10045
G1 X76.413 Y73.908 E9.11915
G1 X76.071 Y69.797 E9.25636
G1 X76.053 Y69.15 E9.27789
G1 X76.071 Y68.52 E9.29885
G1 X76.148 Y67.732 E9.32518
G1 X76.254 Y67.225 E9.34241
G1 X76.408 Y66.623 E9.36308
G1 X76.615 Y65.974 E9.38574
G1 X76.881 Y65.379 E9.40741
G1 X77.168 Y64.823 E9.42822
G1 X77.403 Y64.409 E9.44406
G1 X77.882 Y63.745 E9.47129
G1 X78.276 Y63.273 E9.49174
G1 X78.892 Y62.641 E9.52109
G1 X79.246 Y62.35 E9.53633
G1 X79.764 Y61.958 E9.55794
G1 X80.33 Y61.58 E9.58058
G1 X80.875 Y61.298 E9.60099
G1 X81.439 Y61.043 E9.62157
G1 X82.235 Y60.751 E9.64977
G1 X82.663 Y60.644 E9.66445
G1 X83.276 Y60.516 E9.68527
G1 X83.983 Y60.414 E9.70903
G1 X84.597 Y60.393 E9.72947
G1 X85.218 Y60.405 E9.75013
G1 X85.405 Y60.419 E9.75636
G1 X86.387 Y58.502 E9.828
G1 X86.356 Y58.429 E9.83064
G1 X85.919 Y57.453 E9.86621
G1 X85.668 Y56.784 E9.88997
G1 X85.333 Y55.691 E9.92799
G1 X85.168 Y55.011 E9.95127
G1 X84.968 Y53.892 E9.98907
G1 X84.886 Y53.182 E10.01285
G1 X84.825 Y52.044 E10.05075
G1 X84.83 Y51.343 E10.07407
G1 X84.907 Y50.202 E10.1121
G1 X84.998 Y49.498 E10.13571
G1 X85.211 Y48.39 E10.17324
G1 X85.381 Y47.724 E10.1961
G1 X85.72 Y46.66 E10.23324
G1 X85.982 Y45.986 E10.25729
G1 X86.471 Y44.929 E10.29603
G0 F6000 X86.834 Y45.097
G1 F900 X87.144 Y44.521 E10.31779
G1 X87.739 Y43.56 E10.35538
G1 X88.121 Y43.02 E10.37738
G1 X88.833 Y42.134 E10.41518
G1 X89.276 Y41.647 E10.43708
G1 X90.093 Y40.852 E10.475
G1 X90.582 Y40.43 E10.49648
G1 X91.483 Y39.742 E10.53419
G1 X92.034 Y39.373 E10.55624
G1 X93.007 Y38.804 E10.59373
G1 X93.6 Y38.504 E10.61583
G1 X94.658 Y38.049 E10.65414
G1 X95.274 Y37.827 E10.67592
G1 X96.364 Y37.508 E10.71369
G1 X96.999 Y37.363 E10.73536
G1 X98.117 Y37.178 E10.77305
G1 X98.777 Y37.111 E10.79511
G1 X99.918 Y37.064 E10.83309
G1 X100.579 Y37.077 E10.85508
G1 X101.708 Y37.169 E10.89276
G1 X102.352 Y37.261 E10.91439
G1 X103.466 Y37.489 E10.95221
G1 X104.102 Y37.66 E10.97412
G1 X105.177 Y38.021 E11.01184
G1 X105.782 Y38.266 E11.03355
G1 X106.797 Y38.75 E11.07095
G1 X107.376 Y39.071 E11.09297
G1 X108.353 Y39.694 E11.1315
G1 X108.882 Y40.078 E11.15325
G1 X109.754 Y40.796 E11.19082
G1 X110.241 Y41.25 E11.21296
G1 X111.026 Y42.078 E11.25091
G1 X111.446 Y42.579 E11.27265
G1 X112.123 Y43.493 E11.31048
G1 X112.483 Y44.045 E11.3324
G1 X113.037 Y45.023 E11.36979
G1 X113.325 Y45.614 E11.39165
G1 X113.766 Y46.676 E11.4299
G1 X113.98 Y47.295 E11.45168
G1 X114.286 Y48.391 E11.48953
G1 X114.424 Y49.035 E11.51144
G1 X114.58 Y50.068 E11.54618
G1 X114.627 Y50.338 E11.5553
G1 X114.705 Y50.386 E11.55835
G1 X117.347 Y51.74 E11.65709
G1 X117.875 Y52.05 E11.67745
G1 X118.353 Y52.368 E11.69655
G1 X118.75 Y52.659 E11.71292
G1 X119.299 Y53.165 E11.73775
G1 X119.686 Y53.574 E11.75648
G1 X119.927 Y53.846 E11.76857
G1 X120.433 Y54.564 E11.79778
G1 X120.712 Y55.038 E11.81607
G1 X121.03 Y55.671 E11.83964
G1 X121.22 Y56.182 E11.85777
G1 X121.389 Y56.721 E11.87656
G1 X121.507 Y57.162 E11.89174
G1 X121.624 Y57.93 E11.91758
G1 X121.668 Y58.482 E11.936
G1 X121.685 Y58.933 E11.95101
G1 X121.627 Y59.725 E11.97742
G1 X121.544 Y60.285 E11.99625
G1 X121.408 Y60.928 E12.01811
G1 X121.234 Y61.452 E12.03647
G1 X121.025 Y61.989 E12.05564
G1 X120.765 Y62.557 E12.07641
G1 X120.439 Y63.099 E12.09745
G1 X120.121 Y63.564 E12.11619
G1 X119.633 Y64.178 E12.14227
G1 X118.59 Y65.309 E12.19345
G1 X119.033 Y65.847 E12.21663
G1 X119.507 Y66.533 E12.24436
G1 X119.949 Y67.301 E12.27383
G1 X120.369 Y68.195 E12.30668
G1 X120.377 Y68.213 E12.30734
G1 X120.648 Y68.972 E12.33414
G1 X120.873 Y69.789 E12.36233
G1 X121.038 Y70.667 E12.39204
G1 X121.127 Y71.527 E12.4208
G1 X121.145 Y72.425 E12.45067
G1 X121.092 Y73.261 E12.47853
G1 X121.03 Y73.807 E12.49681
G1 X121.02 Y73.867 E12.49883
G1 X120.947 Y74.226 E12.51102
G1 X120.754 Y75.039 E12.53881
G1 X120.473 Y75.897 E12.56884
G1 X120.156 Y76.646 E12.59589
G1 X119.924 Y77.127 E12.61365
G1 X119.748 Y77.432 E12.62536
G1 X123.652 Y129.153 E14.3505
G1 X124.005 Y129.662 E14.37111
G1 X124.379 Y130.289 E14.39539
G1 X124.823 Y131.162 E14.42797
G1 X124.978 Y131.493 E14.44012
G1 X125.004 Y131.554 E14.44233
G1 X125.147 Y131.929 E14.45568
G1 X125.468 Y132.871 E14.48878
G1 X125.655 Y133.568 E14.51278
G1 X125.851 Y134.562 E14.54648
G1 X125.945 Y135.309 E14.57152
G1 X126.002 Y136.342 E14.60593
G1 X125.992 Y137.085 E14.63064
G1 X125.909 Y138.088 E14.66411
G1 X125.795 Y138.83 E14.68908
G1 X125.567 Y139.842 E14.72359
G1 X125.352 Y140.56 E14.74851
G1 X124.996 Y141.504 E14.78207
G1 X124.694 Y142.166 E14.80627
G1 X124.211 Y143.06 E14.84007
G1 X123.812 Y143.69 E14.86487
G1 X123.203 Y144.519 E14.89908
G1 X122.714 Y145.095 E14.92422
G1 X122.004 Y145.822 E14.95801
G1 X121.454 Y146.313 E14.98254
G1 X120.638 Y146.947 E15.0169
G1 X120.02 Y147.362 E15.04166
G1 X119.152 Y147.862 E15.07498
G1 X118.492 Y148.185 E15.09942
G1 X117.558 Y148.565 E15.13296
G1 X116.852 Y148.797 E15.15768
G1 X115.852 Y149.051 E15.19199
G1 X115.108 Y149.185 E15.21714
G1 X114.1 Y149.295 E15.25086
G1 X107.783 Y159.954 E15.66296
G1 X107.415 Y160.498 E15.68481
G1 X106.983 Y160.993 E15.70666
G1 X106.494 Y161.432 E15.72852
G1 X105.955 Y161.808 E15.75037
G1 X105.375 Y162.116 E15.77222
G1 X104.471 Y162.434 E15.80409
G1 X104.31 Y162.475 E15.80962
G1 X103.664 Y162.598 E15.83149
G1 X103.009 Y162.642 E15.85332
G1 X102.353 Y162.606 E15.87517
G1 X101.706 Y162.49 E15.89704
G1 X101.078 Y162.297 E15.91889
G1 X100.218 Y161.884 E15.95062
G1 X99.968 Y161.946 E15.95919
G1 X99.316 Y162.027 E15.98104
G1 X98.843 Y162.035 E15.99677
G1 X98.609 Y162.029 E16.00456
G1 X97.954 Y161.972 E16.02642
G1 X97.311 Y161.837 E16.04828
G1 X96.69 Y161.624 E16.07011
G1 X96.099 Y161.337 E16.09197
G1 X95.547 Y160.981 E16.11381
G1 X95.042 Y160.56 E16.13568
G1 X94.593 Y160.081 E16.15752
G1 X94.204 Y159.551 E16.17938
G1 X93.976 Y159.16 E16.19444
G1 X93.694 Y158.628 E16.21446
G1 X93.446 Y158.092 E16.23411
G1 X93.141 Y157.324 E16.26159
G1 X93.042 Y157.052 E16.27122
G1 X86.875 Y138.713 E16.91474
G1 X86.798 Y138.466 E16.92335
G1 X86.525 Y137.504 E16.9566
G1 X86.419 Y137.057 E16.97188
G1 X86.229 Y136.076 E17.00512
G1 X86.157 Y135.592 E17.02139
G1 X86.056 Y134.592 E17.05482
G1 X86.03 Y134.132 E17.07015
G1 X86.015 Y133.151 E17.10278
G1 X86.016 Y132.913 E17.1107
G1 X86.907 Y101.989 E18.13966
G1 X86.292 Y101.989 E18.16011
G1 X85.636 Y101.949 E18.18197
G1 X84.99 Y101.83 E18.20382
G1 X84.363 Y101.633 E18.22568
G1 X83.765 Y101.361 E18.24753
G1 X83.36 Y101.124 E18.26314
G1 X82.24 Y100.4 E18.30749
G1 X81.847 Y100.12 E18.32354
G1 X80.417 Y99.003 E18.3839
G1 X79.164 Y98.114 E18.43499
G1 X78.653 Y97.702 E18.45683
G1 X78.306 Y97.356 E18.47312
G1 X77.43 Y96.4 E18.51625
G1 X76.384 Y95.234 E18.56835
G1 X75.976 Y94.719 E18.5902
G1 X75.513 Y93.917 E18.621
G1 X74.847 Y92.494 E18.67326
G1 X74.676 Y92.086 E18.68797
G1 X73.914 Y90.036 E18.76072
G1 X73.723 Y89.408 E18.78255
G1 X73.653 Y89.064 E18.79422
G1 X73.371 Y87.412 E18.84996
G1 X73.313 Y86.954 E18.86532
G1 X73.205 Y85.664 E18.90837
G1 X73.187 Y85.293 E18.92073
G1 X73.171 Y84.199 E18.95712
G1 X73.097 Y82.923 E18.99963
G1 X73.045 Y82.112 E19.02666
G1 X72.893 Y81.528 E19.04673
G1 X72.807 Y80.877 E19.06857
G1 X72.801 Y80.22 E19.09042
G1 X72.875 Y79.567 E19.11228
G1 X73.059 Y78.825 E19.13771
G1 X73.38 Y77.839 E19.1722
G1 X73.621 Y77.228 E19.19404
G1 X73.935 Y76.651 E19.21589
G1 X74.316 Y76.116 E19.23774
G1 X74.759 Y75.631 E19.25958
G1 X75.336 Y75.146 E19.28465
G1 X76.175 Y74.535 E19.31918
G1 X76.729 Y74.181 E19.34104
G1 X76.833 Y74.131 E19.34488
G1 X76.47 Y69.764 E19.49063
G1 X76.453 Y69.162 E19.51066
G1 X76.471 Y68.532 E19.53162
G1 X76.542 Y67.798 E19.55615
G1 X76.641 Y67.324 E19.57225
G1 X76.795 Y66.722 E19.59292
G1 X76.989 Y66.117 E19.61405
G1 X77.237 Y65.562 E19.63427
G1 X77.524 Y65.006 E19.65508
G1 X77.744 Y64.62 E19.66986
G1 X78.189 Y64.002 E19.69519
G1 X78.583 Y63.53 E19.71564
G1 X79.156 Y62.941 E19.74297
G1 X79.487 Y62.669 E19.75722
G1 X80.005 Y62.277 E19.77882
G1 X80.552 Y61.913 E19.80068
G1 X81.039 Y61.663 E19.81888
G1 X81.603 Y61.408 E19.83947
G1 X82.345 Y61.136 E19.86576
G1 X82.745 Y61.036 E19.87947
G1 X83.358 Y60.908 E19.9003
G1 X84.017 Y60.812 E19.92245
G1 X84.589 Y60.793 E19.94148
G1 X85.21 Y60.805 E19.96214
G1 X85.641 Y60.836 E19.97651
G1 X86.793 Y58.585 E20.06062
G1 X86.825 Y58.509 E20.06336
G1 X86.73 Y58.287 E20.07139
G1 X86.284 Y57.29 E20.10772
G1 X86.05 Y56.666 E20.12988
G1 X85.715 Y55.573 E20.16791
G1 X85.562 Y54.941 E20.18953
G1 X85.362 Y53.822 E20.22734
G1 X85.286 Y53.161 E20.24947
G1 X85.225 Y52.023 E20.28738
G1 X85.229 Y51.37 E20.3091
G1 X85.306 Y50.229 E20.34713
G1 X85.391 Y49.574 E20.3691
G1 X85.604 Y48.466 E20.40663
G1 X85.762 Y47.846 E20.42791
G1 X86.101 Y46.782 E20.46505
G1 X86.345 Y46.154 E20.48746
G1 X86.834 Y45.097 E20.52619
G0 F6000 X87.197 Y45.265
G1 F900 X87.484 Y44.732 E20.54633
G1 X88.079 Y43.771 E20.58392
G1 X88.433 Y43.271 E20.6043
G1 X89.145 Y42.385 E20.6421
G1 X89.555 Y41.934 E20.66237
G1 X90.372 Y41.139 E20.70029
G1 X90.825 Y40.748 E20.72019
G1 X91.726 Y40.06 E20.7579
G1 X92.236 Y39.718 E20.77832
G1 X93.209 Y39.149 E20.81581
G1 X93.758 Y38.872 E20.83626
G1 X94.816 Y38.417 E20.87457
G1 X95.387 Y38.211 E20.89476
G1 X96.477 Y37.892 E20.93253
G1 X97.065 Y37.758 E20.95259
G1 X98.183 Y37.573 E20.99028
G1 X98.793 Y37.51 E21.01068
G1 X99.934 Y37.463 E21.04866
G1 X100.546 Y37.476 E21.06902
G1 X101.675 Y37.568 E21.10669
G1 X102.272 Y37.653 E21.12675
G1 X103.386 Y37.881 E21.16457
G1 X103.975 Y38.039 E21.18485
G1 X105.05 Y38.4 E21.22257
G1 X105.61 Y38.627 E21.24267
G1 X106.625 Y39.111 E21.28007
G1 X107.161 Y39.408 E21.30045
