;FLAVOR:Marlin
;TIME:3208
;Filament used: 2.06837m
;Layer height: 0.2
;MINX:78.5
;MINY:87
;MINZ:0.2
;MAXX:121.5
;MAXY:133
;MAXZ:13
;Generated with Cura_SteamEngine 4.12.1
M140 S70
M105
M190 S70
M104 S215
M105
M109 S215
M82 ;absolute extrusion mode
; Ender 3 Custom Start G-code
G92 E0 ; Reset Extruder
G28 ; Home all axes
G1 Z2.0 F3000 ; Move Z Axis up little to prevent scratching of Heat Bed
G1 X0.1 Y20 Z0.3 F5000.0 ; Move to start position
G92 E0 ; Reset Extruder
G1 Z2.0 F3000 ; Move Z Axis up little to prevent scratching of Heat Bed
G1 X5 Y20 Z0.3 F5000.0 ; Move over to prevent blob squish
G92 E0
G92 E0
G1 F1500 E-2
;LAYER_COUNT:65
;LAYER:0
M107
G0 F6000 X80.316 Y88.699 Z0.2
;TYPE:SKIRT
G1 F1500 E0
G1 F900 X80.825 Y88.246 E0.02266
G1 X81.383 Y87.857 E0.04529
G1 X81.983 Y87.535 E0.06794
G1 X82.617 Y87.286 E0.09059
G1 X83.276 Y87.113 E0.11325
G1 X83.95 Y87.019 E0.13589
G1 X84.417 Y87 E0.15143
G1 X115.583 Y87 E1.18802
G1 X116.263 Y87.04 E1.21067
G1 X116.933 Y87.159 E1.23331
G1 X117.585 Y87.356 E1.25596
G1 X118.209 Y87.628 E1.2786
G1 X118.797 Y87.972 E1.30126
G1 X119.341 Y88.382 E1.32391
G1 X119.684 Y88.699 E1.33945
G1 X119.801 Y88.816 E1.34495
G1 X120.254 Y89.325 E1.36761
G1 X120.643 Y89.883 E1.39024
G1 X120.965 Y90.483 E1.41289
G1 X121.214 Y91.117 E1.43554
G1 X121.387 Y91.776 E1.4582
G1 X121.481 Y92.45 E1.48084
G1 X121.5 Y92.917 E1.49638
G1 X121.5 Y127.083 E2.63275
G1 X121.46 Y127.763 E2.6554
G1 X121.341 Y128.433 E2.67804
G1 X121.144 Y129.085 E2.70069
G1 X120.872 Y129.709 E2.72333
G1 X120.528 Y130.297 E2.74599
G1 X120.118 Y130.841 E2.76865
G1 X119.801 Y131.184 E2.78418
G1 X119.684 Y131.301 E2.78968
G1 X119.175 Y131.754 E2.81235
G1 X118.617 Y132.143 E2.83497
G1 X118.017 Y132.465 E2.85762
G1 X117.383 Y132.714 E2.88027
G1 X116.724 Y132.887 E2.90294
G1 X116.05 Y132.981 E2.92557
G1 X115.583 Y133 E2.94112
G1 X84.417 Y133 E3.9777
G1 X83.737 Y132.96 E4.00036
G1 X83.067 Y132.841 E4.02299
G1 X82.415 Y132.644 E4.04564
G1 X81.791 Y132.372 E4.06828
G1 X81.203 Y132.028 E4.09094
G1 X80.659 Y131.618 E4.1136
G1 X80.316 Y131.301 E4.12913
G1 X80.199 Y131.184 E4.13464
G1 X79.746 Y130.675 E4.1573
G1 X79.357 Y130.117 E4.17992
G1 X79.035 Y129.517 E4.20257
G1 X78.786 Y128.883 E4.22523
G1 X78.613 Y128.224 E4.24789
G1 X78.519 Y127.55 E4.27052
G1 X78.5 Y127.083 E4.28607
G1 X78.5 Y92.917 E5.42243
G1 X78.54 Y92.237 E5.44509
G1 X78.659 Y91.567 E5.46772
G1 X78.856 Y90.915 E5.49038
G1 X79.128 Y90.291 E5.51302
G1 X79.472 Y89.703 E5.53567
G1 X79.882 Y89.159 E5.55833
G1 X80.199 Y88.816 E5.57386
G1 X80.316 Y88.699 E5.57937
G0 F6000 X80.599 Y88.982
G1 F900 X81.091 Y88.546 E5.60123
G1 X81.632 Y88.174 E5.62307
G1 X82.214 Y87.87 E5.64491
G1 X82.829 Y87.639 E5.66676
G1 X83.468 Y87.484 E5.68863
G1 X84.417 Y87.4 E5.72032
G1 X115.583 Y87.4 E6.7569
G1 X116.239 Y87.44 E6.77876
G1 X116.885 Y87.559 E6.80061
G1 X117.512 Y87.756 E6.82247
G1 X118.11 Y88.028 E6.84432
G1 X118.671 Y88.37 E6.86617
G1 X119.401 Y88.982 E6.89785
G1 X119.518 Y89.099 E6.90336
G1 X119.954 Y89.591 E6.92522
G1 X120.326 Y90.132 E6.94706
G1 X120.63 Y90.714 E6.9689
G1 X120.861 Y91.329 E6.99075
G1 X121.016 Y91.968 E7.01262
G1 X121.1 Y92.917 E7.04431
G1 X121.1 Y127.083 E8.18067
G1 X121.06 Y127.739 E8.20253
G1 X120.941 Y128.385 E8.22438
G1 X120.744 Y129.012 E8.24624
G1 X120.472 Y129.61 E8.26809
G1 X120.13 Y130.171 E8.28994
G1 X119.518 Y130.901 E8.32162
G1 X119.401 Y131.018 E8.32713
G1 X118.909 Y131.454 E8.34899
G1 X118.368 Y131.826 E8.37083
G1 X117.786 Y132.13 E8.39267
G1 X117.171 Y132.361 E8.41452
G1 X116.532 Y132.516 E8.43639
G1 X115.583 Y132.6 E8.46808
G1 X84.417 Y132.6 E9.50466
G1 X83.761 Y132.56 E9.52652
G1 X83.115 Y132.441 E9.54837
G1 X82.488 Y132.244 E9.57023
G1 X81.89 Y131.972 E9.59208
G1 X81.329 Y131.63 E9.61393
G1 X80.599 Y131.018 E9.64561
G1 X80.482 Y130.901 E9.65112
G1 X80.046 Y130.409 E9.67298
G1 X79.674 Y129.868 E9.69482
G1 X79.37 Y129.286 E9.71666
G1 X79.139 Y128.671 E9.73851
G1 X78.984 Y128.032 E9.76038
G1 X78.9 Y127.083 E9.79207
G1 X78.9 Y92.917 E10.92843
G1 X78.94 Y92.261 E10.95029
G1 X79.059 Y91.615 E10.97214
G1 X79.256 Y90.988 E10.994
G1 X79.528 Y90.39 E11.01585
G1 X79.87 Y89.829 E11.0377
G1 X80.482 Y89.099 E11.06938
G1 X80.599 Y88.982 E11.07489
G0 F6000 X80.881 Y89.264
G1 F900 X81.356 Y88.847 E11.09591
G1 X81.879 Y88.492 E11.11693
G1 X82.443 Y88.206 E11.13797
G1 X83.038 Y87.994 E11.15897
G1 X83.656 Y87.858 E11.18002
G1 X84.417 Y87.8 E11.20541
G1 X115.583 Y87.8 E12.24199
G1 X116.214 Y87.84 E12.26302
G1 X116.835 Y87.959 E12.28405
G1 X117.435 Y88.156 E12.30505
G1 X118.007 Y88.427 E12.32611
G1 X118.539 Y88.767 E12.34711
G1 X119.119 Y89.264 E12.37251
G1 X119.236 Y89.381 E12.37801
G1 X119.653 Y89.856 E12.39904
G1 X120.008 Y90.379 E12.42006
G1 X120.294 Y90.943 E12.44109
G1 X120.506 Y91.538 E12.4621
G1 X120.642 Y92.156 E12.48315
G1 X120.7 Y92.917 E12.50853
G1 X120.7 Y127.083 E13.6449
G1 X120.66 Y127.714 E13.66593
G1 X120.541 Y128.335 E13.68696
G1 X120.344 Y128.935 E13.70796
G1 X120.073 Y129.507 E13.72901
G1 X119.733 Y130.039 E13.75001
G1 X119.236 Y130.619 E13.77542
G1 X119.119 Y130.736 E13.78092
G1 X118.644 Y131.153 E13.80194
G1 X118.121 Y131.508 E13.82297
G1 X117.557 Y131.794 E13.844
G1 X116.962 Y132.006 E13.86501
G1 X116.344 Y132.142 E13.88606
G1 X115.583 Y132.2 E13.91144
G1 X84.417 Y132.2 E14.94803
G1 X83.786 Y132.16 E14.96905
G1 X83.165 Y132.041 E14.99009
G1 X82.565 Y131.844 E15.01109
G1 X81.993 Y131.573 E15.03214
G1 X81.461 Y131.233 E15.05314
G1 X80.881 Y130.736 E15.07855
G1 X80.764 Y130.619 E15.08405
G1 X80.347 Y130.144 E15.10507
G1 X79.992 Y129.621 E15.1261
G1 X79.706 Y129.057 E15.14713
G1 X79.494 Y128.462 E15.16814
G1 X79.358 Y127.844 E15.18918
G1 X79.3 Y127.083 E15.21457
G1 X79.3 Y92.917 E16.35093
G1 X79.34 Y92.286 E16.37196
G1 X79.459 Y91.665 E16.39299
G1 X79.656 Y91.065 E16.414
G1 X79.927 Y90.493 E16.43505
G1 X80.267 Y89.961 E16.45605
G1 X80.764 Y89.381 E16.48145
G1 X80.881 Y89.264 E16.48696
G0 F6000 X81.164 Y89.547
G1 F900 X81.62 Y89.148 E16.50711
G1 X82.125 Y88.812 E16.52728
G1 X82.669 Y88.545 E16.54744
G1 X83.244 Y88.352 E16.56761
G1 X83.839 Y88.236 E16.58777
G1 X84.417 Y88.2 E16.60704
G1 X115.583 Y88.2 E17.64362
G1 X116.188 Y88.24 E17.66379
G1 X116.782 Y88.359 E17.68394
G1 X117.356 Y88.555 E17.70411
G1 X117.899 Y88.826 E17.72429
G1 X118.402 Y89.165 E17.74447
G1 X118.836 Y89.547 E17.7637
G1 X118.953 Y89.664 E17.7692
G1 X119.352 Y90.12 E17.78936
G1 X119.688 Y90.625 E17.80953
G1 X119.955 Y91.169 E17.82969
G1 X120.148 Y91.744 E17.84986
G1 X120.264 Y92.339 E17.87002
G1 X120.3 Y92.917 E17.88928
G1 X120.3 Y127.083 E19.02565
G1 X120.26 Y127.688 E19.04581
G1 X120.141 Y128.282 E19.06596
G1 X119.945 Y128.856 E19.08614
G1 X119.674 Y129.399 E19.10632
G1 X119.335 Y129.902 E19.1265
G1 X118.953 Y130.336 E19.14573
G1 X118.836 Y130.453 E19.15123
G1 X118.38 Y130.852 E19.17138
G1 X117.875 Y131.188 E19.19156
G1 X117.331 Y131.455 E19.21171
G1 X116.756 Y131.648 E19.23189
G1 X116.161 Y131.764 E19.25205
G1 X115.583 Y131.8 E19.27131
G1 X84.417 Y131.8 E20.3079
G1 X83.812 Y131.76 E20.32806
G1 X83.218 Y131.641 E20.34821
G1 X82.644 Y131.445 E20.36838
G1 X82.101 Y131.174 E20.38857
G1 X81.598 Y130.835 E20.40874
G1 X81.164 Y130.453 E20.42797
G1 X81.047 Y130.336 E20.43348
G1 X80.648 Y129.88 E20.45363
G1 X80.312 Y129.375 E20.4738
G1 X80.045 Y128.831 E20.49396
G1 X79.852 Y128.256 E20.51413
G1 X79.736 Y127.661 E20.53429
G1 X79.7 Y127.083 E20.55356
G1 X79.7 Y92.917 E21.68992
G1 X79.74 Y92.312 E21.71009
G1 X79.859 Y91.718 E21.73024
G1 X80.055 Y91.144 E21.75041
G1 X80.326 Y90.601 E21.7706
G1 X80.665 Y90.098 E21.79077
G1 X81.047 Y89.664 E21.81
G1 X81.164 Y89.547 E21.8155
G0 F6000 X81.447 Y89.83
G1 F900 X81.884 Y89.45 E21.83477
G1 X82.369 Y89.133 E21.85404
G1 X82.893 Y88.886 E21.8733
G1 X83.446 Y88.714 E21.89257
G1 X84.018 Y88.619 E21.91185
G1 X84.417 Y88.6 E21.92514
G1 X115.583 Y88.6 E22.96172
G1 X116.161 Y88.64 E22.98099
G1 X116.728 Y88.759 E23.00026
G1 X117.273 Y88.955 E23.01953
G1 X117.786 Y89.224 E23.03879
G1 X118.257 Y89.561 E23.05805
G1 X118.553 Y89.83 E23.07136
G1 X118.67 Y89.947 E23.07686
G1 X119.05 Y90.384 E23.09612
G1 X119.367 Y90.869 E23.11539
G1 X119.614 Y91.393 E23.13466
G1 X119.786 Y91.946 E23.15392
G1 X119.881 Y92.518 E23.17321
G1 X119.9 Y92.917 E23.18649
G1 X119.9 Y127.083 E24.32286
G1 X119.86 Y127.661 E24.34213
G1 X119.741 Y128.228 E24.3614
G1 X119.545 Y128.773 E24.38066
G1 X119.276 Y129.286 E24.39993
G1 X118.939 Y129.757 E24.41919
G1 X118.67 Y130.053 E24.43249
G1 X118.553 Y130.17 E24.438
G1 X118.116 Y130.55 E24.45726
G1 X117.631 Y130.867 E24.47653
G1 X117.107 Y131.114 E24.4958
G1 X116.554 Y131.286 E24.51506
G1 X115.982 Y131.381 E24.53434
G1 X115.583 Y131.4 E24.54763
G1 X84.417 Y131.4 E25.58422
G1 X83.839 Y131.36 E25.60349
G1 X83.272 Y131.241 E25.62276
G1 X82.727 Y131.045 E25.64202
G1 X82.214 Y130.776 E25.66128
G1 X81.743 Y130.439 E25.68055
G1 X81.447 Y130.17 E25.69385
G1 X81.33 Y130.053 E25.69935
G1 X80.95 Y129.616 E25.71861
G1 X80.633 Y129.131 E25.73789
G1 X80.386 Y128.607 E25.75715
G1 X80.214 Y128.054 E25.77642
G1 X80.119 Y127.482 E25.7957
G1 X80.1 Y127.083 E25.80899
G1 X80.1 Y92.917 E26.94535
G1 X80.14 Y92.339 E26.96462
G1 X80.259 Y91.772 E26.98389
G1 X80.455 Y91.227 E27.00316
G1 X80.724 Y90.714 E27.02242
G1 X81.061 Y90.243 E27.04168
G1 X81.33 Y89.947 E27.05499
G1 X81.447 Y89.83 E27.06049
G0 F6000 X81.73 Y90.113
G1 F900 X82.147 Y89.753 E27.07881
G1 X82.611 Y89.456 E27.09714
G1 X83.114 Y89.23 E27.11548
G1 X83.644 Y89.079 E27.13381
G1 X84.417 Y89 E27.15965
G1 X115.583 Y89 E28.19624
G1 X116.133 Y89.04 E28.21458
G1 X116.671 Y89.159 E28.2329
G1 X117.186 Y89.355 E28.25123
G1 X117.667 Y89.623 E28.26955
G1 X118.27 Y90.113 E28.29539
G1 X118.387 Y90.23 E28.30089
G1 X118.747 Y90.647 E28.31921
G1 X119.044 Y91.111 E28.33754
G1 X119.27 Y91.614 E28.35588
G1 X119.421 Y92.144 E28.37421
G1 X119.5 Y92.917 E28.40005
G1 X119.5 Y127.083 E29.53642
G1 X119.46 Y127.633 E29.55476
G1 X119.341 Y128.171 E29.57309
G1 X119.145 Y128.686 E29.59141
G1 X118.877 Y129.167 E29.60973
G1 X118.387 Y129.77 E29.63557
G1 X118.27 Y129.887 E29.64107
G1 X117.853 Y130.247 E29.6594
G1 X117.389 Y130.544 E29.67772
G1 X116.886 Y130.77 E29.69606
G1 X116.356 Y130.921 E29.71439
G1 X115.583 Y131 E29.74023
G1 X84.417 Y131 E30.77682
G1 X83.867 Y130.96 E30.79516
G1 X83.329 Y130.841 E30.81349
G1 X82.814 Y130.645 E30.83181
G1 X82.333 Y130.377 E30.85013
G1 X81.73 Y129.887 E30.87597
G1 X81.613 Y129.77 E30.88147
G1 X81.253 Y129.353 E30.8998
G1 X80.956 Y128.889 E30.91812
G1 X80.73 Y128.386 E30.93646
G1 X80.579 Y127.856 E30.95479
G1 X80.5 Y127.083 E30.98064
G1 X80.5 Y92.917 E32.117
G1 X80.54 Y92.367 E32.13534
G1 X80.659 Y91.829 E32.15367
G1 X80.855 Y91.314 E32.172
G1 X81.123 Y90.833 E32.19031
G1 X81.613 Y90.23 E32.21615
G1 X81.73 Y90.113 E32.22166
G0 F6000 X82.013 Y90.396
G1 F900 X82.409 Y90.057 E32.23899
G1 X82.851 Y89.782 E32.25631
G1 X83.331 Y89.578 E32.27366
G1 X83.836 Y89.45 E32.29098
G1 X84.417 Y89.4 E32.31038
G1 X115.583 Y89.4 E33.34696
G1 X116.103 Y89.44 E33.36431
G1 X116.61 Y89.559 E33.38163
G1 X117.093 Y89.754 E33.39896
G1 X117.541 Y90.02 E33.41628
G1 X117.987 Y90.396 E33.43569
G1 X118.104 Y90.513 E33.44119
G1 X118.443 Y90.909 E33.45853
G1 X118.718 Y91.351 E33.47584
G1 X118.922 Y91.831 E33.49319
G1 X119.05 Y92.336 E33.51052
G1 X119.1 Y92.917 E33.52991
G1 X119.1 Y127.083 E34.66628
G1 X119.06 Y127.603 E34.68362
G1 X118.941 Y128.11 E34.70095
G1 X118.746 Y128.593 E34.71827
G1 X118.48 Y129.041 E34.7356
G1 X118.104 Y129.487 E34.755
G1 X117.987 Y129.604 E34.7605
G1 X117.591 Y129.943 E34.77784
G1 X117.149 Y130.218 E34.79516
G1 X116.669 Y130.422 E34.8125
G1 X116.164 Y130.55 E34.82983
G1 X115.583 Y130.6 E34.84923
G1 X84.417 Y130.6 E35.88581
G1 X83.897 Y130.56 E35.90316
G1 X83.39 Y130.441 E35.92048
G1 X82.907 Y130.246 E35.9378
G1 X82.459 Y129.98 E35.95513
G1 X82.013 Y129.604 E35.97454
G1 X81.896 Y129.487 E35.98004
G1 X81.557 Y129.091 E35.99738
G1 X81.282 Y128.649 E36.01469
G1 X81.078 Y128.169 E36.03204
G1 X80.95 Y127.664 E36.04937
G1 X80.9 Y127.083 E36.06876
G1 X80.9 Y92.917 E37.20513
G1 X80.94 Y92.397 E37.22247
G1 X81.059 Y91.89 E37.23979
G1 X81.254 Y91.407 E37.25712
G1 X81.52 Y90.959 E37.27445
G1 X81.896 Y90.513 E37.29385
G1 X82.013 Y90.396 E37.29935
G0 F6000 X82.296 Y90.679
G1 F900 X82.669 Y90.362 E37.31563
G1 X83.089 Y90.11 E37.33192
G1 X83.544 Y89.93 E37.3482
G1 X84.022 Y89.826 E37.36447
G1 X84.417 Y89.8 E37.37764
G1 X115.583 Y89.8 E38.41422
G1 X116.071 Y89.84 E38.43051
G1 X116.546 Y89.959 E38.44679
G1 X116.995 Y90.153 E38.46306
G1 X117.407 Y90.418 E38.47935
G1 X117.704 Y90.679 E38.49251
G1 X117.821 Y90.796 E38.49801
G1 X118.138 Y91.169 E38.51429
G1 X118.39 Y91.589 E38.53058
G1 X118.57 Y92.044 E38.54686
G1 X118.674 Y92.522 E38.56313
G1 X118.7 Y92.917 E38.57629
G1 X118.7 Y127.083 E39.71266
G1 X118.66 Y127.571 E39.72894
G1 X118.541 Y128.046 E39.74523
G1 X118.347 Y128.495 E39.7615
G1 X118.082 Y128.907 E39.77779
G1 X117.821 Y129.204 E39.79094
G1 X117.704 Y129.321 E39.79644
G1 X117.331 Y129.638 E39.81273
G1 X116.911 Y129.89 E39.82902
G1 X116.456 Y130.07 E39.84529
G1 X115.978 Y130.174 E39.86156
G1 X115.583 Y130.2 E39.87473
G1 X84.417 Y130.2 E40.91131
G1 X83.929 Y130.16 E40.9276
G1 X83.454 Y130.041 E40.94389
G1 X83.005 Y129.847 E40.96015
G1 X82.593 Y129.582 E40.97645
G1 X82.296 Y129.321 E40.9896
G1 X82.179 Y129.204 E40.9951
G1 X81.862 Y128.831 E41.01138
G1 X81.61 Y128.411 E41.02767
G1 X81.43 Y127.956 E41.04395
G1 X81.326 Y127.478 E41.06022
G1 X81.3 Y127.083 E41.07338
G1 X81.3 Y92.917 E42.20975
G1 X81.34 Y92.429 E42.22603
G1 X81.459 Y91.954 E42.24232
G1 X81.653 Y91.505 E42.25859
G1 X81.918 Y91.093 E42.27488
G1 X82.179 Y90.796 E42.28803
G1 X82.296 Y90.679 E42.29354
G0 F6000 X82.579 Y90.962
G1 F900 X82.928 Y90.669 E42.30869
G1 X83.323 Y90.442 E42.32384
G1 X83.751 Y90.287 E42.33899
G1 X84.417 Y90.2 E42.36132
G1 X115.583 Y90.2 E43.39791
G1 X116.037 Y90.24 E43.41307
G1 X116.477 Y90.358 E43.42822
G1 X116.889 Y90.552 E43.44337
G1 X117.421 Y90.962 E43.46571
G1 X117.538 Y91.079 E43.47121
G1 X117.831 Y91.428 E43.48637
G1 X118.058 Y91.823 E43.50152
G1 X118.213 Y92.251 E43.51666
G1 X118.3 Y92.917 E43.539
G1 X118.3 Y127.083 E44.67536
G1 X118.26 Y127.537 E44.69052
G1 X118.142 Y127.977 E44.70567
G1 X117.948 Y128.389 E44.72082
G1 X117.538 Y128.921 E44.74316
G1 X117.421 Y129.038 E44.74866
G1 X117.072 Y129.331 E44.76382
G1 X116.677 Y129.558 E44.77897
G1 X116.249 Y129.713 E44.79411
G1 X115.583 Y129.8 E44.81645
G1 X84.417 Y129.8 E45.85304
G1 X83.963 Y129.76 E45.86819
G1 X83.523 Y129.642 E45.88335
G1 X83.111 Y129.448 E45.89849
G1 X82.579 Y129.038 E45.92083
G1 X82.462 Y128.921 E45.92634
G1 X82.169 Y128.572 E45.94149
G1 X81.942 Y128.177 E45.95664
G1 X81.787 Y127.749 E45.97178
G1 X81.7 Y127.083 E45.99412
G1 X81.7 Y92.917 E47.13049
G1 X81.74 Y92.463 E47.14565
G1 X81.858 Y92.023 E47.1608
G1 X82.052 Y91.611 E47.17595
G1 X82.462 Y91.079 E47.19829
G1 X82.579 Y90.962 E47.20379
G0 F6000 X82.861 Y91.244
G1 F900 X83.185 Y90.978 E47.21773
G1 X83.552 Y90.777 E47.23165
G1 X83.952 Y90.65 E47.24561
G1 X84.417 Y90.6 E47.26116
G1 X115.583 Y90.6 E48.29775
G1 X116 Y90.64 E48.31168
G1 X116.402 Y90.758 E48.32562
G1 X116.774 Y90.951 E48.33955
G1 X117.139 Y91.244 E48.35512
G1 X117.256 Y91.361 E48.36063
G1 X117.522 Y91.685 E48.37457
G1 X117.723 Y92.052 E48.38849
G1 X117.85 Y92.452 E48.40244
G1 X117.9 Y92.917 E48.418
G1 X117.9 Y127.083 E49.55437
G1 X117.86 Y127.5 E49.5683
G1 X117.742 Y127.902 E49.58223
G1 X117.549 Y128.274 E49.59617
G1 X117.256 Y128.639 E49.61174
G1 X117.139 Y128.756 E49.61724
G1 X116.815 Y129.022 E49.63119
G1 X116.448 Y129.223 E49.6451
G1 X116.048 Y129.35 E49.65906
G1 X115.583 Y129.4 E49.67462
G1 X84.417 Y129.4 E50.7112
G1 X84 Y129.36 E50.72513
G1 X83.598 Y129.242 E50.73907
G1 X83.226 Y129.049 E50.75301
G1 X82.861 Y128.756 E50.76858
G1 X82.744 Y128.639 E50.77408
G1 X82.478 Y128.315 E50.78802
G1 X82.277 Y127.948 E50.80194
G1 X82.15 Y127.548 E50.8159
G1 X82.1 Y127.083 E50.83145
G1 X82.1 Y92.917 E51.96782
G1 X82.14 Y92.5 E51.98175
G1 X82.258 Y92.098 E51.99569
G1 X82.451 Y91.726 E52.00963
G1 X82.744 Y91.361 E52.02519
G1 X82.861 Y91.244 E52.0307
G0 F6000 X83.144 Y91.527
G1 F900 X83.439 Y91.289 E52.0433
G1 X83.777 Y91.118 E52.0559
G1 X84.143 Y91.021 E52.0685
